bundles/org.openhab.ui.iconset.classic/src/main/resources/icons/chart.svg

<?xml version="1.0" encoding="UTF-8"?>
<svg enable-background="new 0 0 64 64" viewBox="0 0 64 64" xmlns="http://www.w3.org/2000/svg">
 <path d="m1.5 31.5h17v31h-17z" fill="#00b450"/>
 <path d="m18 32v30h-16v-30h16m1-1h-18v32h18v-32z" fill="#008c39"/>
 <path d="m23.5 16.5h17v46h-17z" fill="#ff9100"/>
 <path d="m40 17v45h-16v-45h16m1-1h-18v47h18v-47z" fill="#e57200"/>
 <path d="m45.5 1.5h17v61h-17z" fill="#1e82ff"/>
 <path d="m62 2v60h-16v-60h16m1-1h-18v62h18v-62z" fill="#1271d8"/>
</svg>

<svg viewBox="0 0 64 64" xmlns="http://www.w3.org/2000/svg"><path d="M1.5 31.5h17v31h-17z" fill="#00b450"/><path d="M18 32v30H2V32h16m1-1H1v32h18V31z" fill="#008c39"/><path d="M23.5 16.5h17v46h-17z" fill="#ff9100"/><path d="M40 17v45H24V17h16m1-1H23v47h18V16z" fill="#e57200"/><path d="M45.5 1.5h17v61h-17z" fill="#1e82ff"/><path d="M62 2v60H46V2h16m1-1H45v62h18V1z" fill="#1271d8"/></svg>
